X: 1
T: Flowers Of The Burren
M: 6/8
L: 1/8
R: jig
K: Dmaj
f2e d2A|FAA BAF|ABd edB|efe ede|
fge d2A|FAA BAF|ABd edB|ded d2e:|
|:fef a2f|abf afe|d2f edB|efe ede|
fef a2f|abf afe|d2f edB|ded d2e:|
